X:3
T:New Slow Air
T:Harmony 1
C:Lyric Todkill
L:1/8
R:Slow Air
M:3/4
K:D
Q:"68 bpm"
[| {g}Bd {ag}a3g | {a}fa {c}d3c | {g}B4 d2 | {g}e4 {g}ec | 
{g}d2 {g}e/(d d2)| {g}df a3 e | {g}d2 {g}Bd e2 | {g}f3 g ae ||
f3 e d2 | {g}e/d/B B4 | d2 f2 dB | A5 {g}A |
c4 B2 | {g}e/d/B B4 | A2 e2 A2 | A4 A2 |
"Watch foot"{g}!tenuto!B!tenuto!d {ag}a3g [M:5/4]| {a}fd {g}A/B/d {gf}B3 A {g}A/B/c "Spey Time"[M:C]|{ag}c4 A4 |]


